build/new/images/img-mask.svg

<svg width="1440" height="941" fill="none" xmlns="http://www.w3.org/2000/svg"><g style="mix-blend-mode:overlay" opacity=".25" stroke="#fff" stroke-width="2"><path d="M1364.17 642h100.65c18.3 0 32.38-15.254 32.38-33.414v-95.157c0-18.887-14.78-33.414-32.38-33.414h-100.65V375.414c0-18.886-14.79-33.414-32.38-33.414h-92.21c-18.3 0-32.38 15.254-32.38 33.414v104.601c0 89.346 70.39 161.985 156.97 161.985z"/><path d="M1238.87 342h93.62c17.6 0 32.38 14.528 32.38 33.414v104.601h-107.69c-27.46 0-49.98-23.245-49.98-51.574v-53.027c0-18.886 14.08-33.414 31.67-33.414z"/></g><g style="mix-blend-mode:overlay" opacity=".5" stroke="#fff" stroke-width="2"><path d="M854.489 216h33.552c6.1 0 10.793-5.085 10.793-11.138v-31.719c0-6.296-4.928-11.138-10.793-11.138h-33.552v-34.867c0-6.295-4.927-11.138-10.793-11.138H812.96c-6.1 0-10.793 5.085-10.793 11.138v34.867c0 29.782 23.463 53.995 52.322 53.995z"/><path d="M812.725 116h31.206c5.865 0 10.793 4.843 10.793 11.138v34.867h-35.898c-9.151 0-16.659-7.748-16.659-17.191v-17.676c0-6.295 4.693-11.138 10.558-11.138z"/></g><g style="mix-blend-mode:overlay" opacity=".5" stroke="#fff" stroke-width="2"><path d="M1153.09 539.424h-134.82c-24.345 0-43.07 20.339-43.07 44.552v126.877c0 25.181 19.661 44.552 43.07 44.552h134.82v138.499c0 25.181 19.66 44.552 43.06 44.552h122.65c24.34 0 43.07-20.339 43.07-44.552V755.405c0-119.128-93.63-215.981-208.78-215.981z"/><path d="M1319.74 939.424h-124.52c-23.41 0-43.07-19.37-43.07-44.552V755.405h143.24c36.52 0 66.48 30.993 66.48 68.765v70.702c0 24.213-18.73 44.552-42.13 44.552z"/></g><g style="mix-blend-mode:overlay" opacity=".5" stroke="#fff" stroke-width="2"><path d="M608.838 760h-33.705c-6.085 0-10.766 5.078-10.766 11.122v31.675c0 6.287 4.915 11.122 10.766 11.122h33.705v34.577c0 6.286 4.915 11.122 10.767 11.122h30.662c6.085 0 10.766-5.078 10.766-11.122v-34.577c0-29.74-23.406-53.919-52.195-53.919z"/><path d="M650.501 859.86h-31.13c-5.852 0-10.767-4.836-10.767-11.123v-34.818h35.811c9.128 0 16.618 7.738 16.618 17.168v17.65c0 6.045-4.681 11.123-10.532 11.123z"/></g><g style="mix-blend-mode:overlay" opacity=".25" stroke="#fff" stroke-width="2"><path d="M392.334 176h16.876c3.047 0 5.391-2.542 5.391-5.569v-15.86c0-3.147-2.461-5.569-5.391-5.569h-16.876V131.69c0-3.148-2.461-5.569-5.391-5.569h-15.352c-3.047 0-5.391 2.542-5.391 5.569v17.312c0 14.891 11.719 26.998 26.134 26.998z"/><path d="M371.473 126h15.587c2.93 0 5.391 2.421 5.391 5.569v17.433h-17.93c-4.571 0-8.321-3.874-8.321-8.595v-8.838c0-3.027 2.344-5.569 5.273-5.569z"/></g><g style="mix-blend-mode:overlay" opacity=".25" stroke="#fff" stroke-width="2"><path d="M213.462 735.86h33.705c6.085 0 10.767-5.078 10.767-11.123v-31.674c0-6.287-4.916-11.123-10.767-11.123h-33.705v-34.576c0-6.286-4.915-11.122-10.766-11.122h-30.662c-6.086 0-10.767 5.077-10.767 11.122v34.576c0 29.741 23.406 53.92 52.195 53.92z"/><path d="M171.8 636h31.13c5.851 0 10.766 4.836 10.766 11.122v34.818h-35.811c-9.128 0-16.618-7.737-16.618-17.167v-17.651c0-6.044 4.681-11.122 10.533-11.122z"/></g><g style="mix-blend-mode:overlay" opacity=".5" stroke="#fff" stroke-width="2"><path d="M62.573 673H-6.956c-12.554 0-22.21 10.475-22.21 22.944v65.342c0 12.968 10.14 22.944 22.21 22.944h69.529v71.327c0 12.968 10.14 22.944 22.21 22.944h63.252c12.554 0 22.211-10.474 22.211-22.944V784.23c0-61.351-48.284-111.23-107.673-111.23z"/><path d="M148.518 879H84.301c-12.071 0-22.21-9.976-22.21-22.944V784.23h73.874c18.83 0 34.281 15.961 34.281 35.414v36.412c0 12.469-9.657 22.944-21.728 22.944z"/></g><g style="mix-blend-mode:overlay" opacity=".25" stroke="#fff" stroke-width="2"><path d="M150.643 107h-67.41c-12.17 0-21.533 10.155-21.533 22.245v63.349c0 12.573 9.83 22.245 21.534 22.245h67.409v69.152c0 12.574 9.83 22.245 21.533 22.245H233.5c12.171 0 21.533-10.155 21.533-22.245v-69.152c0-59.481-46.812-107.839-104.39-107.839z"/><path d="M233.968 306.72h-62.26c-11.703 0-21.533-9.672-21.533-22.245v-69.636h71.622c18.257 0 33.236 15.475 33.236 34.335v35.301c0 12.09-9.362 22.245-21.065 22.245z"/></g><g style="mix-blend-mode:overlay" opacity=".25" stroke="#fff" stroke-width="2"><path d="M1135.68 1h-101.11c-18.26 0-32.3 15.254-32.3 33.414v95.157c0 18.886 14.74 33.414 32.3 33.414h101.11v103.874c0 18.886 14.75 33.414 32.3 33.414h91.99c18.25 0 32.3-15.254 32.3-33.414V162.985C1292.27 73.639 1222.05 1 1135.68 1z"/><path d="M1260.67 300.999h-93.39c-17.56 0-32.3-14.527-32.3-33.413V162.985h107.43c27.39 0 49.86 23.245 49.86 51.574v53.027c0 18.159-14.05 33.413-31.6 33.413z"/></g></svg>

<svg width="1440" height="941" viewBox="0 0 1440 941" fill="none" xmlns="http://www.w3.org/2000/svg">
<g style="mix-blend-mode:overlay" opacity="0.25">
<path d="M1364.17 642H1464.82C1483.12 642 1497.2 626.746 1497.2 608.586V513.429C1497.2 494.542 1482.42 480.015 1464.82 480.015H1364.17V375.414C1364.17 356.528 1349.38 342 1331.79 342H1239.58C1221.28 342 1207.2 357.254 1207.2 375.414V480.015C1207.2 569.361 1277.59 642 1364.17 642Z" stroke="white" stroke-width="2"/>
<path d="M1238.87 342H1332.49C1350.09 342 1364.87 356.528 1364.87 375.414V480.015H1257.18C1229.72 480.015 1207.2 456.77 1207.2 428.441V375.414C1207.2 356.528 1221.28 342 1238.87 342Z" stroke="white" stroke-width="2"/>
</g>
<g style="mix-blend-mode:overlay" opacity="0.5">
<path d="M854.489 216H888.041C894.141 216 898.834 210.915 898.834 204.862V173.143C898.834 166.847 893.906 162.005 888.041 162.005H854.489V127.138C854.489 120.843 849.562 116 843.696 116H812.96C806.86 116 802.167 121.085 802.167 127.138V162.005C802.167 191.787 825.63 216 854.489 216Z" stroke="white" stroke-width="2"/>
<path d="M812.725 116H843.931C849.796 116 854.724 120.843 854.724 127.138V162.005H818.826C809.675 162.005 802.167 154.257 802.167 144.814V127.138C802.167 120.843 806.86 116 812.725 116Z" stroke="white" stroke-width="2"/>
</g>
<g style="mix-blend-mode:overlay" opacity="0.5">
<path d="M1153.09 539.424H1018.27C993.925 539.424 975.2 559.763 975.2 583.976V710.853C975.2 736.034 994.861 755.405 1018.27 755.405H1153.09V893.904C1153.09 919.085 1172.75 938.456 1196.15 938.456H1318.8C1343.14 938.456 1361.87 918.117 1361.87 893.904V755.405C1361.87 636.277 1268.24 539.424 1153.09 539.424Z" stroke="white" stroke-width="2"/>
<path d="M1319.74 939.424H1195.22C1171.81 939.424 1152.15 920.054 1152.15 894.872V755.405H1295.39C1331.91 755.405 1361.87 786.398 1361.87 824.17V894.872C1361.87 919.085 1343.14 939.424 1319.74 939.424Z" stroke="white" stroke-width="2"/>
</g>
<g style="mix-blend-mode:overlay" opacity="0.5">
<path d="M608.838 760H575.133C569.048 760 564.367 765.078 564.367 771.122V802.797C564.367 809.084 569.282 813.919 575.133 813.919H608.838V848.496C608.838 854.782 613.753 859.618 619.605 859.618H650.267C656.352 859.618 661.033 854.54 661.033 848.496V813.919C661.033 784.179 637.627 760 608.838 760Z" stroke="white" stroke-width="2"/>
<path d="M650.501 859.86H619.371C613.519 859.86 608.604 855.024 608.604 848.737V813.919H644.415C653.543 813.919 661.033 821.657 661.033 831.087V848.737C661.033 854.782 656.352 859.86 650.501 859.86Z" stroke="white" stroke-width="2"/>
</g>
<g style="mix-blend-mode:overlay" opacity="0.25">
<path d="M392.334 176L409.21 176C412.257 176 414.601 173.458 414.601 170.431L414.601 154.571C414.601 151.424 412.14 149.002 409.21 149.002L392.334 149.002L392.334 131.69C392.334 128.542 389.873 126.121 386.943 126.121L371.591 126.121C368.544 126.121 366.2 128.663 366.2 131.69L366.2 149.002C366.2 163.893 377.919 176 392.334 176Z" stroke="white" stroke-width="2"/>
<path d="M371.473 126L387.06 126C389.99 126 392.451 128.421 392.451 131.569L392.451 149.002L374.521 149.002C369.95 149.002 366.2 145.128 366.2 140.407L366.2 131.569C366.2 128.542 368.544 126 371.473 126Z" stroke="white" stroke-width="2"/>
</g>
<g style="mix-blend-mode:overlay" opacity="0.25">
<path d="M213.462 735.86L247.167 735.86C253.252 735.86 257.934 730.782 257.934 724.737L257.934 693.063C257.934 686.776 253.018 681.94 247.167 681.94L213.462 681.94L213.462 647.364C213.462 641.078 208.547 636.242 202.696 636.242L172.034 636.242C165.948 636.242 161.267 641.319 161.267 647.364L161.267 681.94C161.267 711.681 184.673 735.86 213.462 735.86Z" stroke="white" stroke-width="2"/>
<path d="M171.8 636L202.93 636C208.781 636 213.696 640.836 213.696 647.122L213.696 681.94L177.885 681.94C168.757 681.94 161.267 674.203 161.267 664.773L161.267 647.122C161.267 641.078 165.948 636 171.8 636Z" stroke="white" stroke-width="2"/>
</g>
<g style="mix-blend-mode:overlay" opacity="0.5">
<path d="M62.5729 673H-6.95591C-19.5097 673 -29.1665 683.475 -29.1665 695.944L-29.1665 761.286C-29.1665 774.254 -19.0269 784.23 -6.95591 784.23H62.5729L62.5729 855.557C62.5729 868.525 72.7125 878.501 84.7835 878.501H148.035C160.589 878.501 170.246 868.027 170.246 855.557L170.246 784.23C170.246 722.879 121.962 673 62.5729 673Z" stroke="white" stroke-width="2"/>
<path d="M148.518 879H84.3009C72.2299 879 62.0903 869.024 62.0903 856.056L62.0903 784.23H135.965C154.795 784.23 170.246 800.191 170.246 819.644V856.056C170.246 868.525 160.589 879 148.518 879Z" stroke="white" stroke-width="2"/>
</g>
<g style="mix-blend-mode:overlay" opacity="0.25">
<path d="M150.643 107H83.2337C71.0626 107 61.7002 117.155 61.7002 129.245V192.594C61.7002 205.167 71.5307 214.839 83.2337 214.839H150.643V283.991C150.643 296.565 160.473 306.236 172.176 306.236H233.5C245.671 306.236 255.033 296.081 255.033 283.991V214.839C255.033 155.358 208.221 107 150.643 107Z" stroke="white" stroke-width="2"/>
<path d="M233.968 306.72H171.708C160.005 306.72 150.175 297.048 150.175 284.475V214.839H221.797C240.054 214.839 255.033 230.314 255.033 249.174V284.475C255.033 296.565 245.671 306.72 233.968 306.72Z" stroke="white" stroke-width="2"/>
</g>
<g style="mix-blend-mode:overlay" opacity="0.25">
<path d="M1135.68 1H1034.57C1016.31 1 1002.27 16.2542 1002.27 34.4139V129.571C1002.27 148.457 1017.01 162.985 1034.57 162.985H1135.68V266.859C1135.68 285.745 1150.43 300.273 1167.98 300.273H1259.97C1278.22 300.273 1292.27 285.019 1292.27 266.859V162.985C1292.27 73.639 1222.05 1 1135.68 1Z" stroke="white" stroke-width="2"/>
<path d="M1260.67 300.999H1167.28C1149.72 300.999 1134.98 286.472 1134.98 267.586V162.985H1242.41C1269.8 162.985 1292.27 186.23 1292.27 214.559V267.586C1292.27 285.745 1278.22 300.999 1260.67 300.999Z" stroke="white" stroke-width="2"/>
</g>
</svg>
